public/images/logos/myspace.svg

<?xml version="1.0" encoding="UTF-8" standalone="no"?>
<svg id="Layer_1" data-name="Layer 1" viewBox="0 0 32 32" version="1.1" sodipodi:docname="myspace.svg" width="32" height="32" inkscape:version="1.4-beta2 (9aaf4f34, 2024-07-30)" xmlns:inkscape="http://www.inkscape.org/namespaces/inkscape" xmlns:sodipodi="http://sodipodi.sourceforge.net/DTD/sodipodi-0.dtd" xmlns="http://www.w3.org/2000/svg" xmlns:svg="http://www.w3.org/2000/svg" xmlns:rdf="http://www.w3.org/1999/02/22-rdf-syntax-ns#" xmlns:cc="http://creativecommons.org/ns#" xmlns:dc="http://purl.org/dc/elements/1.1/">
  <sodipodi:namedview id="namedview10" pagecolor="#ffffff" bordercolor="#000000" borderopacity="0.25" inkscape:showpageshadow="2" inkscape:pageopacity="0.0" inkscape:pagecheckerboard="0" inkscape:deskcolor="#d1d1d1" inkscape:zoom="0.75973239" inkscape:cx="156.6341" inkscape:cy="187.56605" inkscape:window-width="1440" inkscape:window-height="790" inkscape:window-x="0" inkscape:window-y="0" inkscape:window-maximized="1" inkscape:current-layer="Layer_1" />
  <defs id="defs1">
    <style id="style1">.cls-1{fill:#000;}</style>
  </defs>
  <title id="title1">myspace</title>
  <g id="g10" transform="matrix(0.59038906,0,0,0.59038906,1.7901057e-4,-15.733502)">
    <ellipse class="cls-1" cx="7.5" cy="50.400002" rx="6.9000001" ry="6.8000002" id="ellipse1" />
    <path class="cls-1" d="M 7.5,58.8 A 7.75,7.75 0 0 0 0,66.6 v 2.7 0 A 0.68,0.68 0 0 0 0.7,70 H 14.3 A 0.68,0.68 0 0 0 15,69.3 v 0 -2.7 A 7.61,7.61 0 0 0 7.5,58.8 Z" id="path1" />
    <circle class="cls-1" cx="25.4" cy="48.299999" r="7.5999999" id="circle1" />
    <path class="cls-1" d="M 25.4,57.6 A 8.62,8.62 0 0 0 17,66.2 v 2.9 0 a 0.79,0.79 0 0 0 0.8,0.8 H 33 a 0.79,0.79 0 0 0 0.8,-0.8 v 0 -2.9 c -0.1,-4.4 -3.6,-8.6 -8.4,-8.6 z" id="path2" />
    <ellipse class="cls-1" cx="45" cy="45.900002" rx="8.5" ry="8.3999996" id="ellipse2" />
    <path class="cls-1" d="m 45,56.2 a 9.54,9.54 0 0 0 -9.3,9.6 v 3.3 0 a 0.79,0.79 0 0 0 0.8,0.8 h 16.9 a 0.79,0.79 0 0 0 0.8,-0.8 v 0 -3.3 A 9.45,9.45 0 0 0 45,56.2 Z" id="path3" />
  </g>
  <metadata id="metadata10">
    <rdf:RDF>
      <cc:Work rdf:about="">
        <dc:title>myspace</dc:title>
      </cc:Work>
    </rdf:RDF>
  </metadata>
</svg>

<svg id="Layer_1" data-name="Layer 1" xmlns="http://www.w3.org/2000/svg" viewBox="0 0 300 120"><defs><style>.cls-1{fill:#000;}</style></defs><title>myspace</title><ellipse class="cls-1" cx="7.5" cy="50.4" rx="6.9" ry="6.8"/><path class="cls-1" d="M7.5,58.8A7.75,7.75,0,0,0,0,66.6v2.7H0a.68.68,0,0,0,.7.7H14.3a.68.68,0,0,0,.7-.7h0V66.6A7.61,7.61,0,0,0,7.5,58.8Z"/><circle class="cls-1" cx="25.4" cy="48.3" r="7.6"/><path class="cls-1" d="M25.4,57.6A8.62,8.62,0,0,0,17,66.2v2.9h0a.79.79,0,0,0,.8.8H33a.79.79,0,0,0,.8-.8h0V66.2C33.7,61.8,30.2,57.6,25.4,57.6Z"/><ellipse class="cls-1" cx="45" cy="45.9" rx="8.5" ry="8.4"/><path class="cls-1" d="M45,56.2a9.54,9.54,0,0,0-9.3,9.6v3.3h0a.79.79,0,0,0,.8.8H53.4a.79.79,0,0,0,.8-.8h0V65.8A9.45,9.45,0,0,0,45,56.2Z"/><path class="cls-1" d="M59.9,38.5h7.2v4.8c2-2.8,4.8-5.4,9.6-5.4a10,10,0,0,1,9.4,5.6c2.6-3.3,5.9-5.6,10.7-5.6,6.9,0,11,4.4,11,12.1V70h-7.2V52.1c0-5-2.3-7.7-6.4-7.7-3.9,0-6.7,2.8-6.7,7.8V70H80.3V52c0-4.9-2.4-7.6-6.4-7.6s-6.8,3-6.8,7.9V70H59.9V38.5Z"/><path class="cls-1" d="M167.2,38.5h7.2v5.3c2.3-3.3,5.6-5.9,10.7-5.9,7.5,0,14.7,5.9,14.7,16.4v.1c0,10.4-7.2,16.4-14.7,16.4a12.7,12.7,0,0,1-10.7-5.6V82.7h-7.2Zm25.2,15.8v-.1c0-6.1-4.1-10.1-9-10.1s-9.2,4.1-9.2,10.1v.1c0,6.1,4.3,10.1,9.2,10.1S192.4,60.5,192.4,54.3Z"/><path class="cls-1" d="M235.8,70h-7.2V65.1a13,13,0,0,1-10.7,5.6c-7.5,0-14.7-5.9-14.7-16.4v-.1c0-10.5,7.2-16.4,14.7-16.4,5.1,0,8.4,2.6,10.7,5.9V38.4h7.2Zm-16.3-5.6c4.9,0,9.2-4,9.2-10.1v-.1c0-6-4.3-10.1-9.2-10.1s-9,4-9,10.1v.1C210.5,60.5,214.6,64.4,219.5,64.4Z"/><path class="cls-1" d="M239.4,54.4v-.1a16.24,16.24,0,0,1,16.4-16.5c6,0,9.7,2.2,12.6,5.4L263.9,48c-2.2-2.3-4.5-3.9-8.2-3.9-5.3,0-9.1,4.5-9.1,10v.1c0,5.6,3.9,10.2,9.4,10.2,3.4,0,5.9-1.6,8.2-3.9l4.4,4.3a15.77,15.77,0,0,1-12.9,5.9A16.05,16.05,0,0,1,239.4,54.4Z"/><path class="cls-1" d="M269.5,54.4v-.1c0-9,6.4-16.4,15.4-16.4,10,0,15.1,7.9,15.1,17,0,.7-.1,1.3-.1,2H276.7c.8,5.1,4.4,8,9.1,8,3.5,0,6-1.3,8.5-3.8l4.2,3.8a15.9,15.9,0,0,1-12.9,5.9C276.5,70.7,269.5,64.1,269.5,54.4ZM292.8,52c-.5-4.7-3.2-8.3-8-8.3-4.4,0-7.5,3.4-8.2,8.3Z"/><path class="cls-1" d="M124.9,82.6h-7.1l3.8-12.7L109,38.5h7.7l8.1,21.7,6.6-21.7H139Z"/><path class="cls-1" d="M151.4,37.7c-6.2,0-11.3,3.9-11.3,9.8v.1c0,6,5.3,7.8,9.9,9.1,3.7,1.1,6.6,1.9,6.6,4.3v.1c0,2.1-1.4,3.1-4.5,3.1a17.7,17.7,0,0,1-10-3.7l-2.8,5.7a21.64,21.64,0,0,0,12.6,4.2c6.5,0,11.7-3.5,11.7-10.1v-.1c0-5.6-5.2-7.7-9.8-9.1-3.7-1.2-6.8-2.1-6.8-4.4v-.1c0-1.8,1.4-3,4.2-3a17.92,17.92,0,0,1,8.7,2.9l2.8-5.6A23.77,23.77,0,0,0,151.4,37.7Z"/></svg>
